svgs/sharp-regular/suitcase-rolling.svg

<svg xmlns="http://www.w3.org/2000/svg" viewBox="0 0 384 512"><!--! Font Awesome Pro 6.6.0 by @fontawesome - https://fontawesome.com License - https://fontawesome.com/license (Commercial License) Copyright 2024 Fonticons, Inc. --><path d="M120 0L96 0l0 24 0 104-48 0L0 128l0 48L0 432l0 48 48 0 16 0 0 8 0 24 48 0 0-24 0-8 160 0 0 8 0 24 48 0 0-24 0-8 16 0 48 0 0-48 0-256 0-48-48 0-48 0 0-104 0-24L264 0 120 0zM240 128l-96 0 0-80 96 0 0 80zM48 176l288 0 0 256L48 432l0-256zm48 48l0 48 24 0 144 0 24 0 0-48-24 0-144 0-24 0zm0 112l0 48 24 0 144 0 24 0 0-48-24 0-144 0-24 0z"/></svg>

<svg xmlns="http://www.w3.org/2000/svg" viewBox="0 0 384 512"><!--! Font Awesome Pro 6.4.0 by @fontawesome - https://fontawesome.com License - https://fontawesome.com/license (Commercial License) Copyright 2023 Fonticons, Inc. --><path d="M120 0H96V24 128H48 0v48V432v48H48 64v8 24h48V488v-8H272v8 24h48V488v-8h16 48V432 176 128H336 288V24 0H264 120zM240 128H144V48h96v80zM48 176H336V432H48V176zm48 48v48h24H264h24V224H264 120 96zm0 112v48h24H264h24V336H264 120 96z"/></svg>
